out/images/arrowright.svg

<svg fill="none" height="53" viewBox="0 0 101 53" width="101" xmlns="http://www.w3.org/2000/svg"><path d="m99.645 29.0865c1.375-1.3584 1.389-3.5744.0306-4.9497l-22.1353-22.41149c-1.3583-1.375286-3.5744-1.389024-4.9497-.03069-1.3752 1.35834-1.389 3.57437-.0307 4.94965l19.6759 19.92133-19.9213 19.6759c-1.3753 1.3583-1.3891 3.5744-.0307 4.9496 1.3583 1.3753 3.5743 1.3891 4.9496.0307zm-98.666698.4134 96.185498.5963.0434-6.9998-96.1855-.5963z" fill="#fff"/></svg>

<svg width="101" height="53" viewBox="0 0 101 53" fill="none" xmlns="http://www.w3.org/2000/svg">
<path d="M99.645 29.0865C101.02 27.7281 101.034 25.5121 99.6756 24.1368L77.5403 1.72531C76.182 0.350024 73.9659 0.336286 72.5906 1.69462C71.2154 3.05296 71.2016 5.26899 72.5599 6.64427L92.2358 26.5656L72.3145 46.2415C70.9392 47.5998 70.9254 49.8159 72.2838 51.1911C73.6421 52.5664 75.8581 52.5802 77.2334 51.2218L99.645 29.0865ZM0.978302 29.4999L97.1638 30.0962L97.2072 23.0964L1.0217 22.5001L0.978302 29.4999Z" fill="white"/>
</svg>
